storage/app/icons/phosphoricons/bold/mouse-middle-click-bold.svg

<svg xmlns="http://www.w3.org/2000/svg" fill="currentColor" viewBox="0 0 256 256"><path d="M144 12h-32a68.07 68.07 0 0 0-68 68v96a68.07 68.07 0 0 0 68 68h32a68.07 68.07 0 0 0 68-68V80a68.07 68.07 0 0 0-68-68m44 68v20h-28V88a20 20 0 0 0-20-20V36h4a44.05 44.05 0 0 1 44 44m-68 12h16v40h-16Zm-8-56h4v32a20 20 0 0 0-20 20v12H68V80a44.05 44.05 0 0 1 44-44m32 184h-32a44.05 44.05 0 0 1-44-44v-52h28v12a20 20 0 0 0 20 20h24a20 20 0 0 0 20-20v-12h28v52a44.05 44.05 0 0 1-44 44"/></svg>

<svg xmlns="http://www.w3.org/2000/svg" viewBox="0 0 256 256" fill="currentColor"><path d="M144,12H112A68.07,68.07,0,0,0,44,80v96a68.07,68.07,0,0,0,68,68h32a68.07,68.07,0,0,0,68-68V80A68.07,68.07,0,0,0,144,12Zm44,68v20H160V88a20,20,0,0,0-20-20V36h4A44.05,44.05,0,0,1,188,80ZM120,92h16v40H120Zm-8-56h4V68A20,20,0,0,0,96,88v12H68V80A44.05,44.05,0,0,1,112,36Zm32,184H112a44.05,44.05,0,0,1-44-44V124H96v12a20,20,0,0,0,20,20h24a20,20,0,0,0,20-20V124h28v52A44.05,44.05,0,0,1,144,220Z"/></svg>
